X:1
T:O thou to whom all creatures bow
T:Joseph Stephenson
T:Text: Tate/Brady, on Ps. 8.
T:This edition by Edmund Gooch released into the public domain, January 2011. As such, it may be freely copied and performed.
T:O thou to whom all creatures bow
T:Ps. 8th. (A 4 Voce)
T:Copyright © 
T:Copyright © 
T:Copyright © 
C:Joseph Stephenson
Z:Text: Tate/Brady, on Ps. 8.
Z:Copyright ©
%%score [ 1 2 3 4 ]
L:1/8
M:2/2
K:G
V:1 treble nm="SOPRANO" snm="S."
V:2 treble nm="ALTO" snm="A."
V:3 treble-8 transpose=-12 nm="TENOR" snm="T."
V:4 bass nm="BASS" snm="B."
V:1
 z8 | z8 | G8 | d3 ^c d4 | (B2 G2) c4 | A8 | B8 | (B3 A) G2 A2 | (B3 c d3 c | B2) A2 A4 | z4 A4 | %11
w: ||When|heav'n, thy beau-|teous _ work|on|high|Em- * ploys my|wond- * * *|* 'ring sight;|The|
w: ||O|thou to whom|all _ crea-|tures|bow,|With- * in this|earth- * * *|* ly frame;|Through|
w: ||In|heav’n thy wond-|rous _ acts|are|sung,|Nor _ ful- ly|rec- * * *|* kon’d there;|And|
 B2 B2 B2 B2 | (c3 B A2) (Bc) | d6 z2 | z8 | z8 | z4 z2 G2 | B3 A G2 A2 | B4 (AB c2) | (d3 c d3 c | %20
w: moon that night- ly|rules _ _ the _|sky,|||With|stars of feeb- ler|light, with _ _|stars _ _ _|
w: all the world how|great _ _ art _|thou,|||How|glo- rious is thy|name, how _ _|glo- * * *|
w: yet thou mak'st the|in- * * fant _|tongue|||Thy|bound- less praise de-|clare, thy _ _|bound- * * *|
 B3 c d2) e2 | d6 c2 | B8 |] %23
w: _ _ _ of|feeb- ler|light;|
w: * * * rious|is thy|name.|
w: * * * less|praise de-|clare.|
V:2
 z8 | z8 | z8 | D8 | G3 F G4 | E4 D2 D2 | D8 | D4 E2 F2 | G8- | G2 E2 F4 | z4 F4 | G2 G2 F2 G2 | %12
w: |||When|heav'n, thy beau-|teous work on|high|Em- ploys my|wond-|* 'ring sight;|The|moon that night- ly|
w: |||O|thou to whom|all crea- tures|bow,|With- in this|earth-|* ly frame;|Through|all the world how|
w: |||In|heav’n thy wond-|rous acts are|sung,|Nor ful- ly|rec-|* kon’d there;|And|yet thou mak'st the|
 (A3 G F2) E2 | D6 z2 | z8 | z4 z2 D2 | F3 E D2 E2 | (G4 D4 | G4) A4 | G8- | G6 G2 | TF6 F2 | G8 |] %23
w: rules _ _ the|sky,||With|stars of feeb- ler|light, _|_ with|stars|_ of|feeb- ler|light;|
w: great _ _ art|thou,||How|glo- rious is thy|name, _|_ how|glo-|* rious|is thy|name.|
w: in- * * fant|tongue||Thy|bound- less praise de-|clare, _|_ thy|bound-|* less|praise de-|clare.|
V:3
 G8 | d3 ^c d4 | B4 B2 G2 | A4 B4 | (GA) B2 (cB) A2 | G4 F4 | G8 | (G3 A) (B>c)(d>c) | (B3 A G3 A | %9
w: When|heav'n, thy beau-|teous work on|high, when|heav’n, _ thy beau- * teous|work on|high|Em- * ploys _ my _|wond- * * *|
w: O|thou to whom|all crea- tures|bow, O|thou _ to whom _ all|crea- tures|bow,|With- * in _ this _|earth- * * *|
w: In|heav’n thy wond-|rous acts are|sung, in|heav’n _ thy wond- * rous|acts are|sung,|Nor _ ful- * ly _|rec- * * *|
 B2) ^c2 d4 | z4 d4 | d2 d2 d2 B2 | (A3 B c2) B2 | A6 z2 | z4 z2 G2 | B3 A G2 A2 | B6 (Bc) | %17
w: * 'ring sight;|The|moon that night- ly|rules _ _ the|sky,|With|stars of feeb- ler|light, with _|
w: * ly frame;|Through|all the world how|great _ _ art|thou,|How|glo- rious is thy|name, how _|
w: * kon’d there;|And|yet thou mak'st the|in- * * fant|tongue|Thy|bound- less praise de-|clare, thy _|
 d3 c B2 c2 | d4 (d3 c) | (B3 c B3 A | G3 A B2) c2 | TA6 A2 | G8 |] %23
w: stars of feeb- ler|light, with _|stars _ _ _|_ _ _ of|feeb- ler|light;|
w: glo- rious is thy|name, how _|glo- * * *|* * * rious|is thy|name.|
w: bound- less praise de-|clare, thy _|bound- * * *|* * * less|praise de-|clare.|
V:4
 z8 | G,,8 | G,3 F, G,4 | D,4 G,,4 | E,4 C,4 | D,8 | G,,8 | G,4 E,2 D,2 | (G,3 A, B,3 A, | %9
w: |When|heav'n, thy beau-|teous work,|thy work|on|high,|Em- ploys my|wond- * * *|
w: |O|thou to whom|all crea-|tures, crea-|tures|bow,|With- in this|earth- * * *|
w: |In|heav’n thy wond-|rous acts,|thy acts|are|sung,|Nor ful- ly|rec- * * *|
 G,2) A,2 D,4 | z4 D,4 | G,2 G,2 B,2 G,2 | (F,3 G, A,2) A,,2 | D,6 D,2 | F,3 E, D,2 E,2 | G,6 F,2 | %16
w: * 'ring sight;|The|moon that night- ly|rules _ _ the|sky, With|stars of feeb- ler|light, with|
w: * ly frame;|Through|all the world how|great _ _ art|thou, How|glo- rious is thy|name, how|
w: * kon’d there;|And|yet thou mak'st the|in- * * fant|tongue Thy|bound- less praise de-|clare, thy|
 D,3 C, B,,2 (B,,A,,) | %17
w: stars of feeb- ler _|
w: glo- rious is thy _|
w: bound- less praise de- *|
"^The time signature in the source is retorted time: the alto part is given in the alto clef in the source.Fragments of the first verse only of the text are underlaid in the source: this verse and three later verses from the texthave been underlaid editorially. The bass E on beat 2 of bar 14 is printed as a crotchet in the source: other notes in thisbar have time values as given here, and the corresponding bars at the entries of other parts (tenor bar 15, alto bar 16and soprano bar 17) are as given here." G,,8- | %18
w: light,|
w: name,|
w: clare,|
 G,,4 F,4 | (G,3 A, G,3 A, | B,3 A, G,2) C,2 | D,6 D,2 | G,,8 |] %23
w: _ with|stars _ _ _|_ _ _ of|feeb- ler|light;|
w: _ how|glo- * * *|* * * rious|is thy|name.|
w: _ thy|bound- * * *|* * * less|praise de-|clare.|

